svg/color/kin.svg

<svg width="64" height="65" viewBox="0 0 64 65" fill="none" xmlns="http://www.w3.org/2000/svg">
<rect y="0.303711" width="64" height="64" rx="32" fill="#7D43FF"/>
<rect x="0.5" y="0.803711" width="63" height="63" rx="31.5" stroke="#070B14" stroke-opacity="0.15"/>
<path d="M44.0142 26.3042H46.7019C47.5772 26.3035 48.4164 25.9554 49.0351 25.3362C49.6538 24.7171 50.0014 23.8776 50.0014 23.0023V14.3037H41.3034C40.4279 14.3037 39.5881 14.6514 38.9688 15.2704C38.3495 15.8893 38.0014 16.7289 38.0009 17.6044V20.3039C38.0009 21.8953 37.3688 23.4215 36.2435 24.5467C35.1182 25.672 33.5921 26.3042 32.0007 26.3042C30.4093 26.3042 28.8832 25.672 27.7579 24.5467C26.6326 23.4215 26.0005 21.8953 26.0005 20.3039V17.485C25.9998 16.6411 25.6641 15.8319 25.0671 15.2354C24.4702 14.6388 23.6607 14.3037 22.8168 14.3037H14V50.3051H22.7508C23.6126 50.3048 24.439 49.9623 25.0483 49.353C25.6577 48.7436 26.0001 47.9172 26.0005 47.0555V44.3049C26.0005 42.7135 26.6326 41.1873 27.7579 40.0621C28.8832 38.9368 30.4093 38.3046 32.0007 38.3046V38.3165C33.5921 38.3165 35.1182 38.9487 36.2435 40.0739C37.3688 41.1992 38.0009 42.7254 38.0009 44.3167V47.0299C38.0009 47.8987 38.3461 48.7319 38.9604 49.3462C39.5747 49.9606 40.4079 50.3057 41.2767 50.3057H50.0014V41.581C50.0014 41.1508 49.9167 40.7249 49.752 40.3274C49.5874 39.93 49.3461 39.5689 49.0419 39.2647C48.7378 38.9605 48.3766 38.7192 47.9792 38.5546C47.5818 38.39 47.1558 38.3052 46.7256 38.3052H44.0012C42.4098 38.3052 40.8836 37.6731 39.7584 36.5478C38.6331 35.4225 38.0009 33.8964 38.0009 32.305H38.0128C38.0128 30.7136 38.645 29.1875 39.7702 28.0622C40.8955 26.9369 42.4217 26.3048 44.013 26.3048" fill="white"/>
</svg>

<svg xmlns="http://www.w3.org/2000/svg" width="64" height="65" fill="none" viewBox="0 0 64 65"><rect width="64" height="64" y=".304" fill="#7D43FF" rx="32"/><rect width="63" height="63" x=".5" y=".804" stroke="#070B14" stroke-opacity=".15" rx="31.5"/><path fill="#fff" d="M44.014 26.304h2.688a3.3 3.3 0 0 0 3.3-3.302v-8.698h-8.699a3.303 3.303 0 0 0-3.302 3.3v2.7a6 6 0 1 1-12 0v-2.819a3.184 3.184 0 0 0-3.184-3.181H14v36.001h8.75a3.25 3.25 0 0 0 3.25-3.25v-2.75a6 6 0 0 1 6-6v.011a6 6 0 0 1 6 6v2.714a3.276 3.276 0 0 0 3.277 3.276H50V41.58a3.275 3.275 0 0 0-3.275-3.276H44a6 6 0 0 1-6-6h.012a6 6 0 0 1 6-6"/></svg>
